X:297
T: ES WOLLT EIN JAEGER JAGEN
N: E1440
O: Europa, Mitteleuropa, Deutschland, Thueringen; Schleswig; Bergisches
R: Staende -, Jaeger - Lied, Liebe
M: 6/8
L: 1/16
K: D
A,2 | A,4A,2A,2B,2C2 | D6A,4
A,2 | B,4B,2D2C2B,2 | A,6F,4
A,2 | A,4G,2E,4C2 | D4F2F4
D2 | E4E2C3B,C2 | D6z4

